app/dist/common/images/appreciate-holdings-inc.svg

<svg height="18" viewBox="0 0 18 18" width="18" xmlns="http://www.w3.org/2000/svg"><path d="m0 0h18v18h-18z" fill="#f0f3fa"/><path d="m12 7.91-4.4-2.37-4.39 2.36-.21-.37 4.59-2.49 4.62 2.49z" fill="#80ac7f"/><path d="m6.5 7.42h.95v-.94c-.5.07-.88.45-.95.94zm-.01.32h.96v.96h-.96zm1.28-1.26c.48.07.87.45.94.94h-.94zm0 1.26h.95v.96h-.95z" fill="#80ac7f"/><path d="m14 9h-.5v-4.55h-9v1.55h-.5v-2h10z" fill="#081f3f"/><path d="m14 14h-10v-7h.5v6.55h9v-3.55h.5z" fill="#80ac7f"/><path d="m7.95 11.48h-.97l-.16.52h-.52l.88-2.55h.57l.88 2.55h-.53l-.16-.52zm-.49-1.44-.35 1.06h.7zm2.67-.08c.5 0 .92.4.92 1s-.43 1.03-.92 1.03c-.3 0-.5-.17-.62-.33v1.34h-.51v-3.04h.51v.31a.73.73 0 0 1 .62-.3zm-.13.43c-.26 0-.49.2-.49.58 0 .36.23.57.49.57s.54-.21.54-.58a.53.53 0 0 0 -.54-.57zm2.36-.43c.5 0 .92.4.92 1s-.42 1.03-.92 1.03c-.3 0-.5-.17-.61-.33v1.34h-.52v-3.04h.52v.31a.73.73 0 0 1 .61-.3zm-.13.43c-.26 0-.48.2-.48.58 0 .36.22.57.48.57s.54-.21.54-.58a.53.53 0 0 0 -.54-.57z" fill="#081f3f"/></svg>

<!-- by TradingView --><svg width="18" height="18" viewBox="0 0 18 18" xmlns="http://www.w3.org/2000/svg"><path fill="#F0F3FA" d="M0 0h18v18H0z"/><path d="M12 7.91 7.6 5.54 3.21 7.9 3 7.53l4.59-2.49 4.62 2.49-.21.38Z" fill="#80AC7F"/><path d="M6.5 7.42h.95v-.94c-.5.07-.88.45-.95.94Zm-.01.32h.96v.96h-.96v-.96Zm1.28-1.26c.48.07.87.45.94.94h-.94v-.94Zm0 1.26h.95v.96h-.95v-.96Z" fill="#80AC7F"/><path d="M14 9h-.5V4.45h-9V6H4V4h10v5Z" fill="#081F3F"/><path d="M14 14H4V7h.5v6.55h9V10h.5v4Z" fill="#80AC7F"/><path d="M7.95 11.48h-.97l-.16.52H6.3l.88-2.55h.57L8.63 12H8.1l-.16-.52Zm-.49-1.44-.35 1.06h.7l-.35-1.06ZM10.13 9.96c.5 0 .92.4.92 1s-.43 1.03-.92 1.03c-.3 0-.5-.17-.62-.33V13H9V9.96h.51v.31a.73.73 0 0 1 .62-.3Zm-.13.43c-.26 0-.49.2-.49.58 0 .36.23.57.49.57s.54-.21.54-.58a.53.53 0 0 0-.54-.57ZM12.36 9.96c.5 0 .92.4.92 1s-.42 1.03-.92 1.03c-.3 0-.5-.17-.61-.33V13h-.52V9.96h.52v.31a.73.73 0 0 1 .61-.3Zm-.13.43c-.26 0-.48.2-.48.58 0 .36.22.57.48.57s.54-.21.54-.58a.53.53 0 0 0-.54-.57Z" fill="#081F3F"/></svg>
